www/assets/icons/view_module.svg

<svg xmlns="http://www.w3.org/2000/svg" width="24" height="24" viewBox="0 0 24 24" fill='currentColor'><path d="M14.67 5v6.5H9.33V5zm1 6.5H21V5h-5.33zm-1 7.5v-6.5H9.33V19zm1-6.5V19H21v-6.5zm-7.34 0H3V19h5.33zm0-1V5H3v6.5z"/></svg>

<svg width="24" height="24" viewBox="0 0 24 24" xmlns="http://www.w3.org/2000/svg" fill='currentColor'><path d="M14.67 5V11.5H9.33V5H14.67ZM15.67 11.5H21V5H15.67V11.5ZM14.67 19V12.5H9.33V19H14.67ZM15.67 12.5V19H21V12.5H15.67ZM8.33 12.5H3V19H8.33V12.5ZM8.33 11.5V5H3V11.5H8.33Z"/></svg>
